X: 1
T: Silly Lilly
Z: laridee
S: https://thesession.org/tunes/16137#setting30431
R: jig
M: 6/8
L: 1/8
K: Amix
AAA GBd | aef gfe | ddd BAG | Ace GBd |
Ace gfd | afd gfd | ece dB^G |1 Acd ecB :|2 Acd efg ||
aaa fga | ggg gfe | fff efg | BdB Bcd |
ecA gec | afd dcB | ecA dB^G |1 Acd efg :|2 A6 ||
